svgs/sharp-light/rupiah-sign.svg

<svg xmlns="http://www.w3.org/2000/svg" viewBox="0 0 512 512"><!--! Font Awesome Pro 6.6.0 by @fontawesome - https://fontawesome.com License - https://fontawesome.com/license (Commercial License) Copyright 2024 Fonticons, Inc. --><path d="M0 32l16 0 96 0c79.5 0 144 64.5 144 144c0 65.2-43.4 120.3-102.9 138l53.1 166-33.6 0L121.3 319.7c-3.1 .2-6.2 .3-9.3 .3l-80 0 0 160L0 480 0 304 0 48 0 32zM224 176c0-61.9-50.1-112-112-112L32 64l0 224 80 0c8.3 0 16.4-.9 24.2-2.6l7.1-2.3 .1 .4C190 270 224 227 224 176zm80-16l96 0c61.9 0 112 50.1 112 112s-50.1 112-112 112l-80 0 0 112 0 16-32 0 0-16 0-320 0-16 16 0zm96 192c44.2 0 80-35.8 80-80s-35.8-80-80-80l-80 0 0 160 80 0z"/></svg>

<svg xmlns="http://www.w3.org/2000/svg" viewBox="0 0 512 512"><!--! Font Awesome Pro 6.4.0 by @fontawesome - https://fontawesome.com License - https://fontawesome.com/license (Commercial License) Copyright 2023 Fonticons, Inc. --><path d="M0 32H16h96c79.5 0 144 64.5 144 144c0 65.2-43.4 120.3-102.9 138l53.1 166H172.6L121.3 319.7c-3.1 .2-6.2 .3-9.3 .3H32V480H0V304 48 32zM224 176c0-61.9-50.1-112-112-112H32V288h80c8.3 0 16.4-.9 24.2-2.6l7.1-2.3 .1 .4C190 270 224 227 224 176zm80-16h96c61.9 0 112 50.1 112 112s-50.1 112-112 112H320V496v16H288V496 176 160h16zm96 192c44.2 0 80-35.8 80-80s-35.8-80-80-80H320V352h80z"/></svg>
